X: 6
T: Reel Around The Sun
R: reel
M: 4/4
L: 1/8
K: Ddor
|A,DAG EccE|cAGE G/A/G EC|A,DAG EccE|cAGA c2 de|
|fgag f/g/f ed|cdeA cdGc|dFGA cdcA|AEGC D2 z D|
|A,DAG EccE|cAGE G/A/G EC|A,DAG EccE|cAGA c2 de|
|fgag f/g/f ed|cdeA cdGc|dFGA cdcA|AEGC D2 ~e2|


Tune 2231	Setting 24575

